;FLAVOR:Marlin
;TIME:7222
;Filament used: 7.3553m
;Layer height: 0.2625
;Generated with Cura_SteamEngine 3.6.0
M140 S65
M105
M190 S65
M104 S205
M105
M109 S205
M82 ;absolute extrusion mode
G21;(metric values)
G90;(absolute positioning)
M82;(set extruder to absolute mode)
M107;(start with the fan off)
G28;(Home the printer)
G92 E0;(Reset the extruder to 0)
G0 Z5 E5 F500;(Move up and prime the nozzle)
G0 X-1 Z0;(Move outside the printable area)
G1 Y60 E8 F500;(Draw a priming/wiping line to the rear)
G1 X-1;(Move a little closer to the print area)
G1 Y10 E16 F500;(draw more priming/wiping)
G1 E15 F250;(Small retract)
G92 E0;(Zero the extruder)
G92 E0
G1 F2400 E-2.5
;LAYER_COUNT:23
;LAYER:-5
M107
G0 F7200 X6.987 Y15.482 Z0.306
;TYPE:SUPPORT-INTERFACE
G1 F2400 E0
G1 F1125 X7.248 Y15.38 E0.02852
G1 X7.551 Y15.285 E0.06084
G1 X7.772 Y15.231 E0.08399
G1 X8.128 Y15.171 E0.12074
G1 X8.682 Y15.121 E0.17735
G1 X8.904 Y15.111 E0.19997
G1 X12.876 Y15.111 E0.60422
G1 X13.538 Y15.069 E0.67173
G1 X14.122 Y14.968 E0.73205
G1 X15.282 Y14.794 E0.85143
G1 X15.986 Y14.638 E0.92482
G1 X17.084 Y14.313 E1.04136
G1 X17.589 Y14.135 E1.09586
G1 X20.035 Y13.128 E1.36507
G1 X20.282 Y13.019 E1.39255
G1 X22.512 Y11.968 E1.64346
G1 X23.919 Y11.375 E1.79885
G1 X25.245 Y10.879 E1.94294
G1 X26.386 Y10.506 E2.06512
G1 X27.568 Y10.174 E2.19007
G1 X27.848 Y10.107 E2.21937
G1 X29.701 Y9.735 E2.41173
G1 X30.173 Y9.666 E2.46027
G1 X31.741 Y9.512 E2.62063
G1 X32.19 Y9.492 E2.66637
G1 X34.161 Y9.485 E2.86697
G1 X34.516 Y9.498 E2.90313
G1 X38.087 Y9.742 E3.26742
G1 X38.685 Y9.824 E3.32885
G1 X40.412 Y10.153 E3.50778
G1 X40.755 Y10.231 E3.54358
G1 X41.728 Y10.489 E3.64603
G1 X42.946 Y10.867 E3.77582
G1 X43.243 Y10.969 E3.80778
G1 X44.495 Y11.433 E3.94368
G1 X45.981 Y12.058 E4.10775
G1 X48.25 Y13.127 E4.36302
G1 X49.208 Y13.553 E4.46973
G1 X49.837 Y13.786 E4.538
G1 X50.502 Y13.94 E4.60747
G1 X51.181 Y14.009 E4.67693
G1 X51.864 Y13.993 E4.74646
G1 X52.538 Y13.891 E4.81584
G1 X53.195 Y13.703 E4.88539
G1 X53.823 Y13.435 E4.95488
G1 X54.412 Y13.089 E5.02441
G1 X54.95 Y12.674 E5.09356
G1 X55.306 Y12.33 E5.14395
G1 X55.543 Y12.079 E5.17908
G1 X55.779 Y11.861 E5.21178
G1 X56 Y11.68 E5.24085
G1 X56.228 Y11.516 E5.26944
G1 X56.487 Y11.354 E5.30053
G1 X56.726 Y11.226 E5.32812
G1 X57.001 Y11.099 E5.35895
G1 X57.262 Y10.997 E5.38747
G1 X57.565 Y10.902 E5.41979
G1 X57.786 Y10.848 E5.44294
G1 X58.142 Y10.788 E5.47969
G1 X58.696 Y10.738 E5.5363
G1 X58.918 Y10.728 E5.55892
G1 X62.893 Y10.728 E5.96348
G1 X63.868 Y10.635 E6.06316
G1 X64.136 Y10.584 E6.09092
G1 X65.289 Y10.412 E6.20957
G1 X65.995 Y10.256 E6.28316
G1 X67.097 Y9.93 E6.40012
G1 X67.601 Y9.752 E6.45452
G1 X70.047 Y8.745 E6.72373
G1 X70.294 Y8.637 E6.75117
G1 X72.515 Y7.59 E7.00107
G1 X73.759 Y7.062 E7.13861
G1 X75.079 Y6.559 E7.28238
G1 X76.413 Y6.118 E7.42538
G1 X77.581 Y5.791 E7.54882
G1 X77.861 Y5.724 E7.57812
G1 X79.714 Y5.352 E7.77048
G1 X80.186 Y5.283 E7.81903
G1 X81.754 Y5.129 E7.97938
G1 X82.203 Y5.109 E8.02512
G1 X84.177 Y5.102 E8.22603
G1 X84.515 Y5.114 E8.26045
G1 X88.106 Y5.36 E8.62679
G1 X88.666 Y5.435 E8.68429
G1 X90.408 Y5.765 E8.86474
G1 X90.768 Y5.849 E8.90236
G1 X91.929 Y6.161 E9.02471
G1 X92.998 Y6.498 E9.13879
G1 X94.36 Y6.992 E9.28625
G1 X95.798 Y7.588 E9.44467
G1 X96.012 Y7.683 E9.4685
G1 X98.307 Y8.765 E9.72674
G1 X99.578 Y9.33 E9.8683
G1 X99.815 Y9.429 E9.89444
G1 X100.865 Y9.836 E10.00905
G1 X101.285 Y9.982 E10.05431
G1 X101.532 Y10.059 E10.08064
G1 X102.282 Y10.272 E10.15999
G1 X102.925 Y10.412 E10.22696
G1 X104.092 Y10.587 E10.34706
G1 X104.579 Y10.689 E10.39771
G1 X104.879 Y10.775 E10.42947
G1 X105.14 Y10.866 E10.4576
G1 X105.402 Y10.978 E10.4866
G1 X105.669 Y11.112 E10.517
G1 X105.913 Y11.255 E10.54579
G1 X106.167 Y11.426 E10.57695
G1 X106.393 Y11.601 E10.60604
G1 X106.599 Y11.78 E10.63382
G1 X106.772 Y11.952 E10.65865
G1 X107.277 Y12.393 E10.72688
G1 X107.844 Y12.774 E10.79641
G1 X108.454 Y13.081 E10.86591
G1 X109.1 Y13.308 E10.9356
G1 X109.873 Y13.466 E11.0159
G1 X110.129 Y13.498 E11.04215
G1 X110.422 Y13.555 E11.07253
G1 X110.713 Y13.631 E11.10314
G1 X110.971 Y13.715 E11.13076
G1 X111.25 Y13.826 E11.16132
G1 X111.508 Y13.948 E11.19037
G1 X111.766 Y14.091 E11.22039
G1 X112.005 Y14.243 E11.24921
G1 X112.252 Y14.425 E11.28044
G1 X112.453 Y14.594 E11.30717
G1 X112.686 Y14.814 E11.33978
G1 X112.872 Y15.015 E11.36765
G1 X113.061 Y15.246 E11.39803
G1 X113.225 Y15.474 E11.42661
G1 X113.384 Y15.729 E11.4572
G1 X113.515 Y15.972 E11.4853
G1 X113.639 Y16.239 E11.51526
G1 X113.744 Y16.508 E11.54465
G1 X113.839 Y16.811 E11.57697
G1 X113.893 Y17.032 E11.60012
G1 X113.953 Y17.388 E11.63686
G1 X114.003 Y17.943 E11.69358
G1 X114.013 Y18.158 E11.71548
G1 X114.009 Y20.778 E11.98214
G1 X113.985 Y21.155 E12.02058
G1 X113.948 Y21.453 E12.05115
G1 X113.893 Y21.737 E12.08059
G1 X113.817 Y22.028 E12.1112
G1 X113.733 Y22.286 E12.13881
G1 X113.622 Y22.565 E12.16937
G1 X113.5 Y22.823 E12.19842
G1 X113.36 Y23.076 E12.22785
G1 X113.205 Y23.32 E12.25727
G1 X113.032 Y23.555 E12.28697
G1 X112.476 Y24.22 E12.37519
G1 X112.493 Y24.234 E12.37743
G1 X112.216 Y24.641 E12.42753
G1 X111.907 Y25.251 E12.49713
G1 X111.678 Y25.893 E12.5665
G1 X111.531 Y26.561 E12.63611
G1 X111.47 Y27.24 E12.7055
G1 X111.495 Y27.923 E12.77506
G1 X111.606 Y28.597 E12.84458
G1 X111.802 Y29.252 E12.91416
G1 X112.077 Y29.876 E12.98357
G1 X112.432 Y30.462 E13.0533
G1 X112.509 Y30.557 E13.06574
G1 X112.502 Y30.562 E13.06662
G1 X113.061 Y31.246 E13.15652
G1 X113.225 Y31.474 E13.18511
G1 X113.387 Y31.733 E13.2162
G1 X113.515 Y31.972 E13.24379
G1 X113.642 Y32.247 E13.27462
G1 X113.744 Y32.508 E13.30314
G1 X113.839 Y32.811 E13.33546
G1 X113.893 Y33.032 E13.35861
G1 X113.953 Y33.388 E13.39536
G1 X114.003 Y33.943 E13.45207
G1 X114.013 Y34.158 E13.47398
G1 X114.009 Y36.778 E13.74063
G1 X113.985 Y37.155 E13.77908
G1 X113.948 Y37.453 E13.80964
G1 X113.893 Y37.737 E13.83908
G1 X113.817 Y38.028 E13.86969
G1 X113.733 Y38.286 E13.89731
G1 X113.622 Y38.565 E13.92787
G1 X113.5 Y38.823 E13.95691
G1 X113.36 Y39.076 E13.98634
G1 X113.205 Y39.32 E14.01576
G1 X113.032 Y39.555 E14.04546
G1 X112.476 Y40.22 E14.13368
G1 X112.493 Y40.234 E14.13592
G1 X112.216 Y40.641 E14.18603
G1 X111.907 Y41.251 E14.25562
G1 X111.678 Y41.893 E14.325
G1 X111.531 Y42.561 E14.39461
G1 X111.47 Y43.24 E14.46399
G1 X111.495 Y43.923 E14.53355
G1 X111.606 Y44.597 E14.60307
G1 X111.802 Y45.252 E14.67266
G1 X112.077 Y45.876 E14.74206
G1 X112.432 Y46.462 E14.81179
G1 X112.509 Y46.557 E14.82424
G1 X112.502 Y46.562 E14.82511
G1 X113.061 Y47.246 E14.91502
G1 X113.225 Y47.474 E14.9436
G1 X113.387 Y47.733 E14.97469
G1 X113.515 Y47.972 E15.00229
G1 X113.642 Y48.247 E15.03312
G1 X113.744 Y48.508 E15.06164
G1 X113.839 Y48.811 E15.09396
G1 X113.893 Y49.032 E15.11711
G1 X113.953 Y49.388 E15.15385
G1 X114.003 Y49.942 E15.21047
G1 X114.013 Y50.164 E15.23308
G1 X114.009 Y52.778 E15.49913
G1 X113.985 Y53.155 E15.53757
G1 X113.948 Y53.453 E15.56814
G1 X113.893 Y53.737 E15.59758
G1 X113.817 Y54.028 E15.62819
G1 X113.733 Y54.286 E15.6558
G1 X113.622 Y54.565 E15.68636
G1 X113.5 Y54.823 E15.71541
G1 X113.357 Y55.081 E15.74543
G1 X113.205 Y55.32 E15.77426
G1 X113.032 Y55.555 E15.80396
G1 X112.476 Y56.22 E15.89218
G1 X112.493 Y56.234 E15.89442
G1 X112.216 Y56.641 E15.94452
G1 X111.907 Y57.251 E16.01412
G1 X111.678 Y57.893 E16.08349
G1 X111.531 Y58.561 E16.1531
G1 X111.47 Y59.24 E16.22249
G1 X111.495 Y59.923 E16.29205
G1 X111.606 Y60.597 E16.36157
G1 X111.802 Y61.252 E16.43115
G1 X112.077 Y61.876 E16.50056
G1 X112.432 Y62.462 E16.57029
G1 X112.509 Y62.557 E16.58273
G1 X112.502 Y62.562 E16.58361
G1 X113.061 Y63.246 E16.67351
G1 X113.225 Y63.474 E16.7021
G1 X113.387 Y63.733 E16.73319
G1 X113.515 Y63.972 E16.76078
G1 X113.642 Y64.247 E16.79161
G1 X113.744 Y64.508 E16.82013
G1 X113.839 Y64.811 E16.85245
G1 X113.893 Y65.032 E16.8756
G1 X113.953 Y65.388 E16.91235
G1 X114.003 Y65.942 E16.96896
G1 X114.013 Y66.164 E16.99158
G1 X114.009 Y68.778 E17.25762
G1 X113.985 Y69.155 E17.29607
G1 X113.948 Y69.453 E17.32663
G1 X113.893 Y69.737 E17.35607
G1 X113.817 Y70.028 E17.38668
G1 X113.733 Y70.286 E17.4143
G1 X113.622 Y70.565 E17.44486
G1 X113.5 Y70.823 E17.4739
G1 X113.357 Y71.081 E17.50392
G1 X113.205 Y71.32 E17.53275
G1 X113.032 Y71.555 E17.56245
G1 X112.476 Y72.22 E17.65067
G1 X112.493 Y72.234 E17.65291
G1 X112.216 Y72.641 E17.70302
G1 X111.907 Y73.251 E17.77261
G1 X111.678 Y73.893 E17.84199
G1 X111.531 Y74.561 E17.9116
G1 X111.47 Y75.24 E17.98098
G1 X111.495 Y75.923 E18.05054
G1 X111.606 Y76.597 E18.12006
G1 X111.802 Y77.252 E18.18965
G1 X112.077 Y77.876 E18.25905
G1 X112.432 Y78.462 E18.32878
G1 X112.509 Y78.557 E18.34123
G1 X112.502 Y78.562 E18.3421
G1 X113.061 Y79.246 E18.43201
G1 X113.225 Y79.474 E18.46059
G1 X113.387 Y79.733 E18.49168
G1 X113.515 Y79.972 E18.51928
G1 X113.642 Y80.247 E18.55011
G1 X113.744 Y80.508 E18.57863
G1 X113.839 Y80.811 E18.61094
G1 X113.893 Y81.032 E18.6341
G1 X113.953 Y81.388 E18.67084
G1 X114.003 Y81.942 E18.72746
G1 X114.013 Y82.164 E18.75007
G1 X114.009 Y84.778 E19.01612
G1 X113.985 Y85.155 E19.05456
G1 X113.948 Y85.453 E19.08512
G1 X113.893 Y85.737 E19.11457
G1 X113.817 Y86.028 E19.14518
G1 X113.733 Y86.286 E19.17279
G1 X113.622 Y86.565 E19.20335
G1 X113.5 Y86.823 E19.2324
G1 X113.357 Y87.081 E19.26242
G1 X113.205 Y87.32 E19.29125
G1 X113.032 Y87.555 E19.32095
G1 X112.476 Y88.22 E19.40917
G1 X112.493 Y88.234 E19.41141
G1 X112.216 Y88.641 E19.46151
G1 X111.907 Y89.251 E19.53111
G1 X111.678 Y89.893 E19.60048
G1 X111.531 Y90.561 E19.67009
G1 X111.47 Y91.24 E19.73948
G1 X111.495 Y91.923 E19.80904
G1 X111.606 Y92.597 E19.87856
G1 X111.802 Y93.252 E19.94814
G1 X112.077 Y93.876 E20.01754
G1 X112.432 Y94.462 E20.08728
G1 X112.509 Y94.557 E20.09972
G1 X112.502 Y94.562 E20.1006
G1 X113.061 Y95.246 E20.1905
G1 X113.225 Y95.474 E20.21909
G1 X113.387 Y95.733 E20.25018
G1 X113.515 Y95.972 E20.27777
G1 X113.642 Y96.247 E20.3086
G1 X113.744 Y96.508 E20.33712
G1 X113.839 Y96.811 E20.36944
G1 X113.893 Y97.032 E20.39259
G1 X113.953 Y97.388 E20.42934
G1 X114.003 Y97.942 E20.48595
G1 X114.013 Y98.164 E20.50857
G1 X114.009 Y100.778 E20.77461
G1 X113.985 Y101.151 E20.81265
G1 X113.948 Y101.453 E20.84362
G1 X113.893 Y101.737 E20.87306
G1 X113.817 Y102.028 E20.90367
G1 X113.733 Y102.286 E20.93128
G1 X113.622 Y102.565 E20.96184
G1 X113.5 Y102.823 E20.99089
G1 X113.357 Y103.081 E21.02091
G1 X113.205 Y103.32 E21.04974
G1 X113.023 Y103.567 E21.08096
G1 X112.854 Y103.768 E21.10769
G1 X112.637 Y103.998 E21.13987
G1 X112.432 Y104.188 E21.16832
G1 X112.206 Y104.373 E21.19805
G1 X111.976 Y104.538 E21.22686
G1 X111.715 Y104.702 E21.25823
G1 X111.476 Y104.83 E21.28582
G1 X111.201 Y104.957 E21.31665
G1 X110.94 Y105.059 E21.34517
G1 X110.637 Y105.154 E21.37749
G1 X110.392 Y105.214 E21.40316
G1 X110.092 Y105.268 E21.43418
G1 X109.636 Y105.318 E21.48087
G1 X109.495 Y105.328 E21.49526
G1 X106.739 Y105.428 E21.77594
G1 X106.459 Y105.429 E21.80444
G1 X104.198 Y105.375 E22.03462
G1 X103.691 Y105.334 E22.08639
G1 X101.473 Y105.053 E22.31393
G1 X100.717 Y104.909 E22.39225
G1 X99.007 Y104.471 E22.57191
G1 X98.633 Y104.362 E22.61156
G1 X97.413 Y103.948 E22.74268
G1 X96.126 Y103.449 E22.88317
G1 X94.79 Y102.871 E23.03132
G1 X93.508 Y102.267 E23.17555
G1 X91.245 Y101.259 E23.42769
G1 X90.629 Y101.017 E23.49504
G1 X89.987 Y100.793 E23.56425
G1 X89.55 Y100.654 E23.61092
G1 X89.312 Y100.585 E23.63614
G1 X88.487 Y100.369 E23.72293
G1 X88.179 Y100.298 E23.7551
G1 X87.619 Y100.187 E23.81321
G1 X87.319 Y100.136 E23.84418
G1 X86.472 Y100.014 E23.93127
G1 X86.161 Y99.951 E23.96357
G1 X85.502 Y99.858 E24.0313
G1 X85.097 Y99.843 E24.07255
G1 X83.199 Y99.843 E24.26572
G1 X82.534 Y99.885 E24.33354
G1 X82.03 Y99.974 E24.38562
G1 X81.686 Y100.043 E24.42133
G1 X81.02 Y100.135 E24.48976
G1 X80.722 Y100.184 E24.5205
G1 X80.118 Y100.304 E24.58317
G1 X79.802 Y100.377 E24.61618
G1 X78.817 Y100.641 E24.71997
G1 X78.347 Y100.79 E24.77015
G1 X77.735 Y101.003 E24.8361
G1 X77.067 Y101.265 E24.90913
G1 X74.807 Y102.272 E25.16094
G1 X73.977 Y102.667 E25.25449
G1 X73.726 Y102.778 E25.28243
G1 X70.661 Y104.025 E25.6192
G1 X70.37 Y104.132 E25.65075
G1 X69.734 Y104.341 E25.71889
G1 X69.406 Y104.439 E25.75373
G1 X68.125 Y104.769 E25.88836
G1 X67.488 Y104.977 E25.95656
G1 X66.871 Y105.268 E26.02599
G1 X66.295 Y105.635 E26.0955
G1 X65.771 Y106.073 E26.16501
G1 X65.305 Y106.572 E26.2345
G1 X64.906 Y107.126 E26.30398
G1 X64.582 Y107.726 E26.37338
G1 X64.354 Y108.304 E26.43662
G1 X64.237 Y108.661 E26.47486
G1 X64.131 Y108.928 E26.5041
G1 X64.009 Y109.186 E26.53314
G1 X63.866 Y109.444 E26.56316
G1 X63.714 Y109.683 E26.59199
G1 X63.532 Y109.93 E26.62322
G1 X63.363 Y110.131 E26.64994
G1 X63.146 Y110.361 E26.68213
G1 X62.941 Y110.551 E26.71057
G1 X62.711 Y110.739 E26.74081
G1 X62.483 Y110.903 E26.76939
G1 X62.224 Y111.065 E26.80048
G1 X61.985 Y111.193 E26.82808
G1 X61.71 Y111.32 E26.8589
G1 X61.449 Y111.422 E26.88742
G1 X61.146 Y111.517 E26.91974
G1 X60.901 Y111.577 E26.94541
G1 X60.601 Y111.631 E26.97644
G1 X60.145 Y111.681 E27.02313
G1 X60.004 Y111.691 E27.03751
G1 X57.248 Y111.791 E27.31819
G1 X56.969 Y111.792 E27.34659
G1 X54.701 Y111.739 E27.57748
G1 X54.208 Y111.699 E27.62782
G1 X51.84 Y111.395 E27.8708
G1 X51.225 Y111.272 E27.93463
G1 X49.452 Y110.815 E28.12098
G1 X49.123 Y110.718 E28.15589
G1 X47.975 Y110.329 E28.27926
G1 X46.66 Y109.822 E28.42269
G1 X45.425 Y109.292 E28.55947
G1 X44.027 Y108.635 E28.71668
G1 X41.762 Y107.626 E28.96905
G1 X41.484 Y107.512 E28.99963
G1 X40.965 Y107.318 E29.05602
G1 X40.415 Y107.13 E29.11517
G1 X39.794 Y106.941 E29.18124
G1 X39.013 Y106.736 E29.26342
G1 X38.694 Y106.662 E29.29675
G1 X38.103 Y106.545 E29.35806
G1 X37.818 Y106.498 E29.38746
G1 X37.122 Y106.401 E29.45898
G1 X36.675 Y106.315 E29.50531
G1 X36.016 Y106.222 E29.57305
G1 X35.61 Y106.207 E29.6144
G1 X33.704 Y106.207 E29.80838
G1 X33.038 Y106.249 E29.8763
G1 X32.207 Y106.404 E29.96233
G1 X31.545 Y106.496 E30.03036
G1 X31.252 Y106.546 E30.06061
G1 X30.62 Y106.671 E30.12618
G1 X30.317 Y106.74 E30.1578
G1 X29.327 Y107.005 E30.26211
G1 X28.822 Y107.165 E30.31602
G1 X28.263 Y107.36 E30.37628
G1 X27.582 Y107.627 E30.45073
G1 X25.326 Y108.632 E30.70208
G1 X24.513 Y109.019 E30.79372
G1 X24.255 Y109.133 E30.82243
G1 X21.198 Y110.378 E31.15837
G1 X20.869 Y110.497 E31.19398
G1 X20.17 Y110.728 E31.26891
G1 X19.843 Y110.823 E31.30356
G1 X18.089 Y111.274 E31.48789
G1 X17.583 Y111.379 E31.54048
G1 X16.023 Y111.618 E31.7011
G1 X15.501 Y111.67 E31.75449
G1 X15.207 Y111.678 E31.78443
G1 X14.907 Y111.665 E31.81499
G1 X14.627 Y111.637 E31.84363
G1 X14.325 Y111.587 E31.87478
G1 X14.064 Y111.525 E31.90209
G1 X13.772 Y111.437 E31.93312
G1 X13.499 Y111.336 E31.96275
G1 X13.248 Y111.223 E31.99077
G1 X12.972 Y111.079 E32.02245
G1 X12.742 Y110.941 E32.04975
G1 X12.483 Y110.76 E32.08191
G1 X12.264 Y110.586 E32.11037
G1 X11.942 Y110.295 E32.15455
G1 X11.417 Y109.877 E32.22285
G1 X10.834 Y109.523 E32.29226
G1 X10.21 Y109.245 E32.36179
G1 X9.558 Y109.049 E32.43108
G1 X9.015 Y108.951 E32.48724
G1 X8.574 Y108.895 E32.53248
G1 X8.288 Y108.841 E32.5621
G1 X7.998 Y108.765 E32.59262
G1 X7.738 Y108.68 E32.62046
G1 X7.461 Y108.57 E32.65079
G1 X7.202 Y108.447 E32.67997
G1 X6.944 Y108.304 E32.70999
G1 X6.706 Y108.153 E32.73868
G1 X6.459 Y107.971 E32.7699
G1 X6.258 Y107.802 E32.79663
G1 X6.025 Y107.582 E32.82925
G1 X5.838 Y107.38 E32.85726
G1 X5.646 Y107.145 E32.88815
G1 X5.486 Y106.922 E32.91608
G1 X5.324 Y106.662 E32.94726
G1 X5.196 Y106.424 E32.97476
G1 X5.069 Y106.149 E33.00559
G1 X4.967 Y105.888 E33.03411
G1 X4.872 Y105.585 E33.06643
G1 X4.818 Y105.364 E33.08958
G1 X4.756 Y104.992 E33.12797
G1 X4.708 Y104.454 E33.18294
G1 X4.698 Y104.232 E33.20556
G1 X4.702 Y101.64 E33.46936
G1 X4.726 Y101.264 E33.50771
G1 X4.764 Y100.963 E33.53858
G1 X4.818 Y100.682 E33.56771
G1 X4.894 Y100.391 E33.59832
G1 X4.978 Y100.133 E33.62593
G1 X5.089 Y99.854 E33.65649
G1 X5.211 Y99.596 E33.68554
G1 X5.357 Y99.333 E33.71615
G1 X5.506 Y99.099 E33.74439
G1 X5.679 Y98.864 E33.77409
G1 X6.24 Y98.193 E33.8631
G1 X6.225 Y98.181 E33.86506
G1 X6.506 Y97.767 E33.91598
G1 X6.815 Y97.157 E33.98558
G1 X7.044 Y96.515 E34.05495
