;FLAVOR:Marlin
;TIME:5733
;Filament used: 5.78187m
;Layer height: 0.2625
;Generated with Cura_SteamEngine 3.6.0
M140 S65
M105
M190 S65
M104 S205
M105
M109 S205
M82 ;absolute extrusion mode
G21;(metric values)
G90;(absolute positioning)
M82;(set extruder to absolute mode)
M107;(start with the fan off)
G28;(Home the printer)
G92 E0;(Reset the extruder to 0)
G0 Z5 E5 F500;(Move up and prime the nozzle)
G0 X-1 Z0;(Move outside the printable area)
G1 Y60 E8 F500;(Draw a priming/wiping line to the rear)
G1 X-1;(Move a little closer to the print area)
G1 Y10 E16 F500;(draw more priming/wiping)
G1 E15 F250;(Small retract)
G92 E0;(Zero the extruder)
G92 E0
G1 F2400 E-2.5
;LAYER_COUNT:23
;LAYER:-5
M107
G0 F7200 X5.068 Y6.27 Z0.306
;TYPE:SUPPORT-INTERFACE
G1 F2400 E0
G1 F1125 X5.298 Y6.082 E0.03023
G1 X5.526 Y5.918 E0.05882
G1 X5.785 Y5.756 E0.08991
G1 X6.024 Y5.628 E0.1175
G1 X6.299 Y5.501 E0.14833
G1 X6.56 Y5.399 E0.17685
G1 X6.863 Y5.304 E0.20917
G1 X7.083 Y5.25 E0.23223
G1 X7.443 Y5.189 E0.26939
G1 X7.6 Y5.175 E0.28543
G1 X8.263 Y5.074 E0.35369
G1 X8.92 Y4.886 E0.42324
G1 X9.547 Y4.615 E0.49275
G1 X10.137 Y4.267 E0.56247
G1 X10.77 Y3.764 E0.64476
G1 X11.007 Y3.545 E0.6776
G1 X11.237 Y3.357 E0.70783
G1 X11.465 Y3.193 E0.73642
G1 X11.724 Y3.031 E0.76751
G1 X11.967 Y2.901 E0.79556
G1 X12.238 Y2.776 E0.82593
G1 X12.499 Y2.674 E0.85445
G1 X12.802 Y2.579 E0.88677
G1 X13.05 Y2.517 E0.91279
G1 X13.36 Y2.462 E0.94483
G1 X13.652 Y2.427 E0.97476
G1 X13.912 Y2.414 E1.00126
G1 X14.26 Y2.418 E1.03668
G1 X14.49 Y2.431 E1.06012
G1 X14.793 Y2.469 E1.0912
G1 X16.272 Y2.694 E1.24346
G1 X16.965 Y2.842 E1.31558
G1 X19.427 Y3.519 E1.57546
G1 X19.921 Y3.686 E1.62853
G1 X22.143 Y4.555 E1.87135
G1 X23.309 Y5.074 E2.00125
G1 X24.115 Y5.458 E2.09212
G1 X26.371 Y6.463 E2.34347
G1 X26.636 Y6.572 E2.37264
G1 X27.205 Y6.785 E2.43447
G1 X27.76 Y6.975 E2.49418
G1 X28.344 Y7.152 E2.55628
G1 X29.114 Y7.353 E2.63728
G1 X29.416 Y7.422 E2.66881
G1 X30.024 Y7.543 E2.7319
G1 X30.316 Y7.591 E2.76202
G1 X31.159 Y7.714 E2.84872
G1 X32.088 Y7.905 E2.94525
G1 X32.089 Y7.898 E2.94597
G1 X32.132 Y7.907 E2.95044
G1 X32.844 Y7.956 E3.02308
G1 X34.067 Y7.957 E3.14755
G1 X34.732 Y7.916 E3.21536
G1 X35.171 Y7.841 E3.26069
G1 X35.747 Y7.719 E3.32061
G1 X35.928 Y7.687 E3.33932
G1 X36.594 Y7.595 E3.40774
G1 X36.904 Y7.543 E3.43973
G1 X37.505 Y7.423 E3.50211
G1 X37.802 Y7.353 E3.53316
G1 X38.827 Y7.079 E3.64115
G1 X39.303 Y6.927 E3.692
G1 X39.897 Y6.72 E3.75602
G1 X40.54 Y6.468 E3.82631
G1 X42.835 Y5.446 E4.082
G1 X44.173 Y4.818 E4.23243
G1 X45.568 Y4.22 E4.3869
G1 X46.921 Y3.704 E4.53428
G1 X48.013 Y3.341 E4.6514
G1 X48.197 Y3.286 E4.67095
G1 X50.023 Y2.815 E4.86287
G1 X50.77 Y2.675 E4.94022
G1 X53.104 Y2.381 E5.17964
G1 X53.623 Y2.346 E5.23259
G1 X55.848 Y2.298 E5.45909
G1 X56.108 Y2.301 E5.48555
G1 X58.94 Y2.409 E5.77399
G1 X59.312 Y2.446 E5.81204
G1 X59.597 Y2.493 E5.84144
G1 X59.883 Y2.559 E5.87131
G1 X60.168 Y2.644 E5.90158
G1 X60.42 Y2.737 E5.92892
G1 X60.718 Y2.869 E5.96209
G1 X60.954 Y2.991 E5.98913
G1 X61.738 Y3.46 E6.08211
G1 X62.364 Y3.735 E6.1517
G1 X63.018 Y3.93 E6.22115
G1 X63.693 Y4.04 E6.29076
G1 X64.374 Y4.064 E6.36011
G1 X65.055 Y4.002 E6.42971
G1 X65.718 Y3.855 E6.49882
G1 X66.213 Y3.686 E6.55206
G1 X66.501 Y3.595 E6.5828
G1 X66.76 Y3.53 E6.60998
G1 X67.07 Y3.475 E6.64202
G1 X67.362 Y3.44 E6.67195
G1 X67.622 Y3.427 E6.69845
G1 X67.97 Y3.431 E6.73387
G1 X68.2 Y3.444 E6.75731
G1 X68.503 Y3.482 E6.78839
G1 X69.982 Y3.707 E6.94065
G1 X70.675 Y3.855 E7.01277
G1 X73.14 Y4.533 E7.27297
G1 X73.631 Y4.699 E7.32572
G1 X75.853 Y5.568 E7.56854
G1 X76.924 Y6.043 E7.68778
G1 X77.818 Y6.469 E7.78857
G1 X80.082 Y7.477 E8.0408
G1 X80.346 Y7.585 E8.06983
G1 X80.915 Y7.798 E8.13167
G1 X81.47 Y7.988 E8.19137
G1 X82.054 Y8.165 E8.25348
G1 X82.824 Y8.366 E8.33447
G1 X83.126 Y8.435 E8.366
G1 X83.734 Y8.556 E8.42909
G1 X84.026 Y8.604 E8.45921
G1 X84.869 Y8.727 E8.54592
G1 X85.798 Y8.918 E8.64244
G1 X85.799 Y8.911 E8.64316
G1 X85.842 Y8.92 E8.64763
G1 X86.554 Y8.969 E8.72027
G1 X87.777 Y8.97 E8.84474
G1 X88.442 Y8.929 E8.91255
G1 X88.881 Y8.854 E8.95788
G1 X89.457 Y8.732 E9.0178
G1 X89.638 Y8.7 E9.03651
G1 X90.304 Y8.608 E9.10494
G1 X90.614 Y8.556 E9.13693
G1 X91.215 Y8.436 E9.1993
G1 X91.512 Y8.366 E9.23036
G1 X92.537 Y8.092 E9.33834
G1 X93.014 Y7.94 E9.38929
G1 X93.599 Y7.736 E9.45235
G1 X93.992 Y7.588 E9.49509
G1 X94.268 Y7.475 E9.52544
G1 X96.518 Y6.472 E9.77616
G1 X97.918 Y5.815 E9.93356
G1 X99.35 Y5.204 E10.09201
G1 X100.473 Y4.774 E10.2144
G1 X101.717 Y4.356 E10.34796
G1 X102.034 Y4.265 E10.38153
G1 X103.733 Y3.828 E10.56008
G1 X104.48 Y3.688 E10.63743
G1 X106.814 Y3.394 E10.87685
G1 X107.333 Y3.359 E10.92979
G1 X109.558 Y3.311 E11.15629
G1 X109.818 Y3.314 E11.18276
G1 X112.65 Y3.422 E11.4712
G1 X113.022 Y3.459 E11.50925
G1 X113.307 Y3.506 E11.53864
G1 X113.593 Y3.572 E11.56852
G1 X113.878 Y3.657 E11.59878
G1 X114.13 Y3.75 E11.62612
G1 X114.428 Y3.882 E11.65929
G1 X114.669 Y4.007 E11.68693
G1 X114.909 Y4.152 E11.71546
G1 X115.15 Y4.319 E11.74531
G1 X115.387 Y4.505 E11.77597
G1 X115.612 Y4.708 E11.80681
G1 X115.795 Y4.894 E11.83337
G1 X115.98 Y5.109 E11.86223
G1 X116.171 Y5.362 E11.8945
G1 X116.327 Y5.595 E11.92304
G1 X116.474 Y5.849 E11.9529
G1 X116.611 Y6.127 E11.98445
G1 X116.711 Y6.367 E12.01091
G1 X116.806 Y6.643 E12.04062
G1 X116.884 Y6.927 E12.07059
G1 X116.946 Y7.226 E12.10167
G1 X116.985 Y7.505 E12.13034
G1 X117.015 Y7.925 E12.1732
G1 X117.022 Y8.11 E12.19204
G1 X117.018 Y10.755 E12.46123
G1 X116.994 Y11.132 E12.49968
G1 X116.957 Y11.43 E12.53024
G1 X116.902 Y11.714 E12.55969
G1 X116.826 Y12.005 E12.5903
G1 X116.742 Y12.263 E12.61791
G1 X116.631 Y12.542 E12.64847
G1 X116.509 Y12.8 E12.67752
G1 X116.366 Y13.058 E12.70754
G1 X116.214 Y13.297 E12.73637
G1 X116.032 Y13.544 E12.76759
G1 X115.863 Y13.745 E12.79432
G1 X115.646 Y13.975 E12.8265
G1 X115.441 Y14.165 E12.85495
G1 X115.211 Y14.353 E12.88518
G1 X114.983 Y14.517 E12.91377
G1 X114.724 Y14.679 E12.94486
G1 X114.485 Y14.807 E12.97245
G1 X113.711 Y15.165 E13.05924
G1 X113.104 Y15.543 E13.13202
G1 X112.575 Y15.974 E13.20147
G1 X112.104 Y16.468 E13.27094
G1 X111.699 Y17.018 E13.34045
G1 X111.367 Y17.616 E13.41006
G1 X111.113 Y18.248 E13.47939
G1 X110.94 Y18.91 E13.54903
G1 X110.854 Y19.587 E13.61848
G1 X110.852 Y20.269 E13.68789
G1 X110.937 Y20.948 E13.75754
G1 X111.107 Y21.609 E13.827
G1 X111.359 Y22.243 E13.89644
G1 X111.689 Y22.842 E13.96604
G1 X112.092 Y23.392 E14.03544
G1 X112.561 Y23.889 E14.10499
G1 X113.089 Y24.322 E14.17448
G1 X113.666 Y24.685 E14.24386
G1 X114.236 Y24.951 E14.30788
G1 X114.642 Y25.113 E14.35237
G1 X114.922 Y25.246 E14.38392
G1 X115.166 Y25.381 E14.4123
G1 X115.405 Y25.533 E14.44113
G1 X115.652 Y25.715 E14.47235
G1 X115.853 Y25.884 E14.49908
G1 X116.086 Y26.104 E14.53169
G1 X116.273 Y26.306 E14.55971
G1 X116.461 Y26.536 E14.58994
G1 X116.625 Y26.764 E14.61853
G1 X116.784 Y27.019 E14.64911
G1 X116.915 Y27.262 E14.67721
G1 X117.042 Y27.537 E14.70804
G1 X117.144 Y27.798 E14.73656
G1 X117.239 Y28.101 E14.76888
G1 X117.293 Y28.322 E14.79203
G1 X117.353 Y28.678 E14.82877
G1 X117.403 Y29.232 E14.88539
G1 X117.413 Y29.454 E14.908
G1 X117.409 Y32.069 E15.17415
G1 X117.385 Y32.446 E15.2126
G1 X117.348 Y32.744 E15.24316
G1 X117.293 Y33.028 E15.2726
G1 X117.217 Y33.319 E15.30321
G1 X117.133 Y33.577 E15.33082
G1 X117.024 Y33.851 E15.36084
G1 X116.895 Y34.123 E15.39147
G1 X116.785 Y34.321 E15.41453
G1 X116.498 Y34.927 E15.48277
G1 X116.286 Y35.576 E15.55226
G1 X116.157 Y36.247 E15.6218
G1 X116.114 Y36.928 E15.69125
G1 X116.157 Y37.609 E15.7607
G1 X116.286 Y38.28 E15.83024
G1 X116.5 Y38.934 E15.90027
G1 X116.924 Y39.77 E15.99567
G1 X117.042 Y39.958 E16.01826
G1 X117.176 Y40.207 E16.04704
G1 X117.303 Y40.482 E16.07787
G1 X117.405 Y40.743 E16.10639
G1 X117.5 Y41.046 E16.13871
G1 X117.555 Y41.267 E16.16189
G1 X117.615 Y41.627 E16.19903
G1 X117.664 Y42.176 E16.25513
G1 X117.674 Y42.397 E16.27765
G1 X117.675 Y44.855 E16.52781
G1 X117.647 Y45.389 E16.58224
G1 X117.61 Y45.684 E16.61249
G1 X117.555 Y45.971 E16.64224
G1 X117.482 Y46.257 E16.67228
G1 X117.397 Y46.517 E16.70012
G1 X117.282 Y46.806 E16.73177
G1 X117.158 Y47.066 E16.76109
G1 X117.021 Y47.314 E16.78993
G1 X116.872 Y47.547 E16.81807
G1 X116.693 Y47.793 E16.84904
G1 X116.5 Y48.025 E16.87975
G1 X116.313 Y48.221 E16.90732
G1 X116.096 Y48.423 E16.9375
G1 X115.87 Y48.608 E16.96722
G1 X115.638 Y48.775 E16.99631
G1 X115.372 Y48.94 E17.02817
G1 X115.141 Y49.065 E17.0549
G1 X114.867 Y49.191 E17.0856
G1 X114.588 Y49.3 E17.11608
G1 X114.323 Y49.384 E17.14438
G1 X114.057 Y49.45 E17.17227
G1 X113.746 Y49.505 E17.20441
G1 X113.307 Y49.553 E17.24936
G1 X113.152 Y49.564 E17.26517
G1 X110.4 Y49.664 E17.54545
G1 X110.12 Y49.665 E17.57394
G1 X107.855 Y49.611 E17.80453
G1 X107.385 Y49.574 E17.85252
G1 X104.97 Y49.262 E18.10035
G1 X104.404 Y49.15 E18.15907
G1 X102.688 Y48.712 E18.33932
G1 X102.337 Y48.61 E18.37652
G1 X101.123 Y48.201 E18.5069
G1 X99.965 Y47.756 E18.63316
G1 X98.438 Y47.1 E18.8023
G1 X97.219 Y46.525 E18.93948
G1 X94.901 Y45.493 E19.19772
G1 X94.636 Y45.384 E19.22688
G1 X94.139 Y45.198 E19.28089
G1 X93.511 Y44.984 E19.34841
G1 X92.951 Y44.815 E19.40795
G1 X92.167 Y44.61 E19.49042
G1 X91.869 Y44.54 E19.52158
G1 X91.281 Y44.423 E19.5826
G1 X90.973 Y44.371 E19.61439
G1 X90.135 Y44.25 E19.70056
G1 X89.719 Y44.165 E19.74377
G1 X89.055 Y44.071 E19.81203
G1 X88.373 Y44.063 E19.88144
G1 X87.694 Y44.141 E19.951
G1 X87.031 Y44.304 E20.02049
G1 X86.394 Y44.549 E20.08995
G1 X85.792 Y44.873 E20.15953
G1 X85.237 Y45.269 E20.22892
G1 X84.736 Y45.733 E20.29842
G1 X84.297 Y46.257 E20.36799
G1 X83.928 Y46.831 E20.43744
G1 X83.634 Y47.447 E20.50691
G1 X83.422 Y48.09 E20.57582
G1 X83.345 Y48.431 E20.6114
G1 X83.278 Y48.782 E20.64776
G1 X83.202 Y49.074 E20.67847
G1 X83.115 Y49.342 E20.70715
G1 X83.008 Y49.612 E20.73671
G1 X82.882 Y49.879 E20.76676
G1 X82.739 Y50.137 E20.79678
G1 X82.589 Y50.373 E20.82524
G1 X82.414 Y50.611 E20.85531
G1 X82.23 Y50.831 E20.88449
G1 X82.019 Y51.054 E20.91574
G1 X81.814 Y51.244 E20.94419
G1 X81.588 Y51.429 E20.97391
G1 X81.359 Y51.594 E21.00264
G1 X81.097 Y51.758 E21.0341
G1 X80.858 Y51.886 E21.06169
G1 X80.583 Y52.013 E21.09252
G1 X80.322 Y52.115 E21.12104
G1 X80.02 Y52.21 E21.15326
G1 X79.755 Y52.275 E21.18103
G1 X79.477 Y52.327 E21.20982
G1 X79.037 Y52.378 E21.2549
G1 X76.096 Y52.574 E21.55488
G1 X75.74 Y52.584 E21.59113
G1 X73.712 Y52.572 E21.79754
G1 X73.263 Y52.545 E21.84332
G1 X71.724 Y52.387 E22.00077
G1 X71.279 Y52.317 E22.04662
G1 X69.516 Y51.961 E22.22967
G1 X69.236 Y51.893 E22.259
G1 X68.159 Y51.594 E22.37276
G1 X66.734 Y51.125 E22.52544
G1 X65.413 Y50.623 E22.66927
G1 X63.977 Y50.008 E22.82826
G1 X61.939 Y49.044 E23.05771
G1 X61.695 Y48.936 E23.08487
G1 X60.054 Y48.26 E23.2655
G1 X59.42 Y48.045 E23.33363
G1 X58.75 Y47.909 E23.40321
G1 X58.069 Y47.858 E23.47272
G1 X57.388 Y47.894 E23.54212
G1 X56.716 Y48.016 E23.61163
G1 X56.065 Y48.221 E23.6811
G1 X55.445 Y48.506 E23.75055
G1 X54.866 Y48.868 E23.82004
G1 X54.336 Y49.3 E23.88963
G1 X53.866 Y49.795 E23.95911
G1 X53.463 Y50.346 E24.02858
G1 X53.131 Y50.943 E24.09811
G1 X52.878 Y51.577 E24.16758
G1 X52.706 Y52.238 E24.2371
G1 X52.62 Y52.914 E24.30645
G1 X52.615 Y53.483 E24.36436
G1 X52.625 Y53.724 E24.38891
G1 X52.621 Y56.349 E24.65607
G1 X52.597 Y56.725 E24.69442
G1 X52.56 Y57.023 E24.72498
G1 X52.505 Y57.307 E24.75442
G1 X52.429 Y57.598 E24.78503
G1 X52.345 Y57.856 E24.81265
G1 X52.234 Y58.135 E24.84321
G1 X52.112 Y58.393 E24.87226
G1 X51.969 Y58.651 E24.90228
G1 X51.817 Y58.89 E24.9311
G1 X51.635 Y59.137 E24.96233
G1 X51.466 Y59.338 E24.98906
G1 X51.249 Y59.568 E25.02124
G1 X51.044 Y59.758 E25.04969
G1 X50.814 Y59.946 E25.07992
G1 X50.583 Y60.112 E25.10887
G1 X50.354 Y60.254 E25.1363
G1 X49.809 Y60.645 E25.20456
G1 X49.309 Y61.109 E25.27399
G1 X48.871 Y61.634 E25.34357
G1 X48.504 Y62.209 E25.413
G1 X48.21 Y62.825 E25.48247
G1 X47.998 Y63.475 E25.55205
G1 X47.868 Y64.144 E25.62141
G1 X47.825 Y64.826 E25.69096
G1 X47.868 Y65.507 E25.76041
G1 X47.997 Y66.178 E25.82995
G1 X48.209 Y66.827 E25.89944
G1 X48.501 Y67.444 E25.96891
G1 X48.869 Y68.02 E26.03848
G1 X49.306 Y68.544 E26.10792
G1 X49.806 Y69.008 E26.17734
G1 X50.564 Y69.56 E26.27278
G1 X50.757 Y69.722 E26.29842
G1 X50.99 Y69.942 E26.33104
G1 X51.177 Y70.144 E26.35905
G1 X51.365 Y70.374 E26.38929
G1 X51.529 Y70.602 E26.41787
G1 X51.691 Y70.861 E26.44896
G1 X51.819 Y71.1 E26.47656
G1 X51.946 Y71.375 E26.50739
G1 X52.048 Y71.636 E26.53591
G1 X52.143 Y71.939 E26.56822
G1 X52.197 Y72.16 E26.59138
G1 X52.257 Y72.516 E26.62812
G1 X52.307 Y73.07 E26.68473
G1 X52.317 Y73.292 E26.70735
G1 X52.313 Y78.476 E27.23496
G1 X52.29 Y78.849 E27.27299
G1 X52.252 Y79.156 E27.30448
G1 X52.197 Y79.44 E27.33392
G1 X52.121 Y79.731 E27.36453
G1 X52.037 Y79.989 E27.39214
G1 X51.926 Y80.268 E27.4227
G1 X51.804 Y80.526 E27.45175
G1 X51.661 Y80.784 E27.48177
G1 X51.509 Y81.023 E27.5106
G1 X51.327 Y81.27 E27.54182
G1 X51.158 Y81.471 E27.56855
G1 X50.941 Y81.701 E27.60073
G1 X50.736 Y81.891 E27.62918
G1 X50.506 Y82.079 E27.65941
G1 X50.282 Y82.24 E27.68749
G1 X49.445 Y82.761 E27.78783
G1 X48.917 Y83.193 E27.85726
G1 X48.447 Y83.689 E27.92681
G1 X48.042 Y84.239 E27.99632
G1 X47.712 Y84.836 E28.06575
G1 X47.458 Y85.47 E28.13526
G1 X47.287 Y86.131 E28.20475
G1 X47.201 Y86.809 E28.27431
G1 X47.201 Y87.492 E28.34382
G1 X47.286 Y88.17 E28.41336
G1 X47.458 Y88.831 E28.48288
G1 X47.711 Y89.465 E28.55235
G1 X48.041 Y90.062 E28.62178
G1 X48.444 Y90.613 E28.69126
G1 X48.914 Y91.109 E28.7608
G1 X49.448 Y91.544 E28.8309
G1 X49.813 Y91.758 E28.87396
G1 X49.809 Y91.767 E28.87496
G1 X50.214 Y91.995 E28.92227
G1 X50.543 Y92.176 E28.96048
G1 X50.788 Y92.332 E28.99004
G1 X51.035 Y92.514 E29.02127
G1 X51.236 Y92.683 E29.048
G1 X51.469 Y92.903 E29.08061
G1 X51.656 Y93.105 E29.10863
G1 X51.844 Y93.335 E29.13886
G1 X52.008 Y93.563 E29.16744
G1 X52.17 Y93.822 E29.19854
G1 X52.298 Y94.061 E29.22613
G1 X52.425 Y94.336 E29.25696
G1 X52.527 Y94.597 E29.28548
G1 X52.622 Y94.9 E29.3178
G1 X52.676 Y95.121 E29.34095
G1 X52.736 Y95.477 E29.37769
G1 X52.786 Y96.031 E29.43431
G1 X52.796 Y96.253 E29.45692
G1 X52.792 Y101.443 E29.98514
G1 X52.768 Y101.82 E30.02359
G1 X52.731 Y102.118 E30.05415
G1 X52.676 Y102.402 E30.08359
G1 X52.6 Y102.693 E30.1142
G1 X52.516 Y102.951 E30.14182
G1 X52.405 Y103.23 E30.17238
G1 X52.283 Y103.488 E30.20142
G1 X52.14 Y103.746 E30.23145
G1 X51.988 Y103.985 E30.26027
G1 X51.806 Y104.232 E30.2915
G1 X51.637 Y104.433 E30.31823
G1 X51.42 Y104.663 E30.35041
G1 X51.215 Y104.853 E30.37886
G1 X50.985 Y105.041 E30.40909
G1 X50.757 Y105.205 E30.43767
G1 X50.498 Y105.367 E30.46877
G1 X50.259 Y105.495 E30.49636
G1 X49.986 Y105.621 E30.52696
G1 X49.722 Y105.724 E30.5558
G1 X49.421 Y105.819 E30.58793
G1 X49.156 Y105.884 E30.6157
G1 X48.878 Y105.936 E30.64448
G1 X48.437 Y105.988 E30.68967
G1 X47.422 Y106.056 E30.79321
G1 X46.758 Y106.144 E30.86138
G1 X46.098 Y106.317 E30.93082
G1 X45.464 Y106.573 E31.00041
G1 X44.869 Y106.906 E31.0698
G1 X44.319 Y107.311 E31.13932
G1 X43.826 Y107.784 E31.20885
G1 X43.396 Y108.314 E31.27832
G1 X43.037 Y108.895 E31.34783
G1 X42.753 Y109.516 E31.41732
G1 X42.55 Y110.166 E31.48663
G1 X42.442 Y110.755 E31.54757
G1 X42.422 Y110.919 E31.56439
G1 X42.364 Y111.223 E31.59589
G1 X42.288 Y111.511 E31.6262
G1 X42.204 Y111.769 E31.65382
G1 X42.093 Y112.048 E31.68438
G1 X41.971 Y112.306 E31.71342
G1 X41.828 Y112.564 E31.74345
G1 X41.676 Y112.803 E31.77227
G1 X41.494 Y113.05 E31.8035
G1 X41.325 Y113.251 E31.83023
G1 X41.108 Y113.481 E31.86241
G1 X40.903 Y113.671 E31.89086
G1 X40.673 Y113.859 E31.92109
G1 X40.445 Y114.023 E31.94967
G1 X40.186 Y114.185 E31.98077
G1 X39.947 Y114.313 E32.00836
G1 X39.672 Y114.44 E32.03919
G1 X39.411 Y114.542 E32.06771
G1 X39.108 Y114.637 E32.10003
G1 X38.863 Y114.697 E32.1257
G1 X38.563 Y114.751 E32.15672
G1 X38.107 Y114.801 E32.20341
G1 X37.966 Y114.811 E32.2178
G1 X35.21 Y114.911 E32.49847
G1 X34.93 Y114.912 E32.52697
G1 X32.669 Y114.858 E32.75715
G1 X32.162 Y114.817 E32.80892
G1 X29.944 Y114.536 E33.03647
G1 X29.188 Y114.392 E33.11479
G1 X27.478 Y113.954 E33.29445
G1 X27.104 Y113.845 E33.3341
