;FLAVOR:Marlin
;TIME:10357
;Filament used: 10.138m
;Layer height: 0.2625
;Generated with Cura_SteamEngine 3.6.0
M140 S65
M105
M190 S65
M104 S205
M105
M109 S205
M82 ;absolute extrusion mode
G21;(metric values)
G90;(absolute positioning)
M82;(set extruder to absolute mode)
M107;(start with the fan off)
G28;(Home the printer)
G92 E0;(Reset the extruder to 0)
G0 Z5 E5 F500;(Move up and prime the nozzle)
G0 X-1 Z0;(Move outside the printable area)
G1 Y60 E8 F500;(Draw a priming/wiping line to the rear)
G1 X-1;(Move a little closer to the print area)
G1 Y10 E16 F500;(draw more priming/wiping)
G1 E15 F250;(Small retract)
G92 E0;(Zero the extruder)
G92 E0
G1 F2400 E-2.5
;LAYER_COUNT:23
;LAYER:-5
M107
G0 F7200 X5.068 Y6.27 Z0.306
;TYPE:SUPPORT-INTERFACE
G1 F2400 E0
G1 F1125 X5.298 Y6.082 E0.03023
G1 X5.526 Y5.918 E0.05882
G1 X5.785 Y5.756 E0.08991
G1 X6.024 Y5.628 E0.1175
G1 X6.299 Y5.501 E0.14833
G1 X6.56 Y5.399 E0.17685
G1 X6.863 Y5.304 E0.20917
G1 X7.083 Y5.25 E0.23223
G1 X7.443 Y5.189 E0.26939
G1 X7.6 Y5.175 E0.28543
G1 X8.263 Y5.074 E0.35369
G1 X8.92 Y4.886 E0.42324
G1 X9.547 Y4.615 E0.49275
G1 X10.137 Y4.267 E0.56247
G1 X10.77 Y3.764 E0.64476
G1 X11.007 Y3.545 E0.6776
G1 X11.237 Y3.357 E0.70783
G1 X11.465 Y3.193 E0.73642
G1 X11.724 Y3.031 E0.76751
G1 X11.967 Y2.901 E0.79556
G1 X12.238 Y2.776 E0.82593
G1 X12.499 Y2.674 E0.85445
G1 X12.802 Y2.579 E0.88677
G1 X13.05 Y2.517 E0.91279
G1 X13.36 Y2.462 E0.94483
G1 X13.652 Y2.427 E0.97476
G1 X13.912 Y2.414 E1.00126
G1 X14.26 Y2.418 E1.03668
G1 X14.49 Y2.431 E1.06012
G1 X14.793 Y2.469 E1.0912
G1 X16.272 Y2.694 E1.24346
G1 X16.965 Y2.842 E1.31558
G1 X19.427 Y3.519 E1.57546
G1 X19.921 Y3.686 E1.62853
G1 X22.143 Y4.555 E1.87135
G1 X23.309 Y5.074 E2.00125
G1 X24.115 Y5.458 E2.09212
G1 X26.371 Y6.463 E2.34347
G1 X26.636 Y6.572 E2.37264
G1 X27.205 Y6.785 E2.43447
G1 X27.76 Y6.975 E2.49418
G1 X28.344 Y7.152 E2.55628
G1 X29.114 Y7.353 E2.63728
G1 X29.416 Y7.422 E2.66881
G1 X30.024 Y7.543 E2.7319
G1 X30.316 Y7.591 E2.76202
G1 X31.159 Y7.714 E2.84872
G1 X32.088 Y7.905 E2.94525
G1 X32.089 Y7.898 E2.94597
G1 X32.132 Y7.907 E2.95044
G1 X32.844 Y7.956 E3.02308
G1 X34.067 Y7.957 E3.14755
G1 X34.732 Y7.916 E3.21536
G1 X35.171 Y7.841 E3.26069
G1 X35.747 Y7.719 E3.32061
G1 X35.928 Y7.687 E3.33932
G1 X36.594 Y7.595 E3.40774
G1 X36.904 Y7.543 E3.43973
G1 X37.505 Y7.423 E3.50211
G1 X37.802 Y7.353 E3.53316
G1 X38.827 Y7.079 E3.64115
G1 X39.303 Y6.927 E3.692
G1 X39.897 Y6.72 E3.75602
G1 X40.54 Y6.468 E3.82631
G1 X42.835 Y5.446 E4.082
G1 X44.173 Y4.818 E4.23243
G1 X45.568 Y4.22 E4.3869
G1 X46.921 Y3.704 E4.53428
G1 X48.013 Y3.341 E4.6514
G1 X48.197 Y3.286 E4.67095
G1 X50.023 Y2.815 E4.86287
G1 X50.77 Y2.675 E4.94022
G1 X53.104 Y2.381 E5.17964
G1 X53.623 Y2.346 E5.23259
G1 X55.848 Y2.298 E5.45909
G1 X56.108 Y2.301 E5.48555
G1 X58.94 Y2.409 E5.77399
G1 X59.312 Y2.446 E5.81204
G1 X59.597 Y2.493 E5.84144
G1 X59.883 Y2.559 E5.87131
G1 X60.168 Y2.644 E5.90158
G1 X60.42 Y2.737 E5.92892
G1 X60.718 Y2.869 E5.96209
G1 X60.954 Y2.991 E5.98913
G1 X61.738 Y3.46 E6.08211
G1 X62.364 Y3.735 E6.1517
G1 X63.018 Y3.93 E6.22115
G1 X63.693 Y4.04 E6.29076
G1 X64.374 Y4.064 E6.36011
G1 X65.055 Y4.002 E6.42971
G1 X65.718 Y3.855 E6.49882
G1 X66.213 Y3.686 E6.55206
G1 X66.501 Y3.595 E6.5828
G1 X66.76 Y3.53 E6.60998
G1 X67.07 Y3.475 E6.64202
G1 X67.362 Y3.44 E6.67195
G1 X67.622 Y3.427 E6.69845
G1 X67.97 Y3.431 E6.73387
G1 X68.2 Y3.444 E6.75731
G1 X68.503 Y3.482 E6.78839
G1 X69.982 Y3.707 E6.94065
G1 X70.675 Y3.855 E7.01277
G1 X73.14 Y4.533 E7.27297
G1 X73.631 Y4.699 E7.32572
G1 X75.853 Y5.568 E7.56854
G1 X76.924 Y6.043 E7.68778
G1 X77.818 Y6.469 E7.78857
G1 X80.082 Y7.477 E8.0408
G1 X80.346 Y7.585 E8.06983
G1 X80.915 Y7.798 E8.13167
G1 X81.47 Y7.988 E8.19137
G1 X82.054 Y8.165 E8.25348
G1 X82.824 Y8.366 E8.33447
G1 X83.126 Y8.435 E8.366
G1 X83.734 Y8.556 E8.42909
G1 X84.026 Y8.604 E8.45921
G1 X84.869 Y8.727 E8.54592
G1 X85.798 Y8.918 E8.64244
G1 X85.799 Y8.911 E8.64316
G1 X85.842 Y8.92 E8.64763
G1 X86.554 Y8.969 E8.72027
G1 X87.777 Y8.97 E8.84474
G1 X88.442 Y8.929 E8.91255
G1 X88.881 Y8.854 E8.95788
G1 X89.457 Y8.732 E9.0178
G1 X89.638 Y8.7 E9.03651
G1 X90.304 Y8.608 E9.10494
G1 X90.614 Y8.556 E9.13693
G1 X91.215 Y8.436 E9.1993
G1 X91.512 Y8.366 E9.23036
G1 X92.537 Y8.092 E9.33834
G1 X93.014 Y7.94 E9.38929
G1 X93.599 Y7.736 E9.45235
G1 X93.992 Y7.588 E9.49509
G1 X94.268 Y7.475 E9.52544
G1 X96.518 Y6.472 E9.77616
G1 X97.918 Y5.815 E9.93356
G1 X99.35 Y5.204 E10.09201
G1 X100.473 Y4.774 E10.2144
G1 X101.717 Y4.356 E10.34796
G1 X102.034 Y4.265 E10.38153
G1 X103.733 Y3.828 E10.56008
G1 X104.48 Y3.688 E10.63743
G1 X106.814 Y3.394 E10.87685
G1 X107.333 Y3.359 E10.92979
G1 X109.558 Y3.311 E11.15629
G1 X109.818 Y3.314 E11.18276
G1 X112.65 Y3.422 E11.4712
G1 X113.022 Y3.459 E11.50925
G1 X113.307 Y3.506 E11.53864
G1 X113.593 Y3.572 E11.56852
G1 X113.878 Y3.657 E11.59878
G1 X114.13 Y3.75 E11.62612
G1 X114.428 Y3.882 E11.65929
G1 X114.669 Y4.007 E11.68693
G1 X114.909 Y4.152 E11.71546
G1 X115.15 Y4.319 E11.74531
G1 X115.387 Y4.505 E11.77597
G1 X115.612 Y4.708 E11.80681
G1 X115.795 Y4.894 E11.83337
G1 X115.98 Y5.109 E11.86223
G1 X116.171 Y5.362 E11.8945
G1 X116.327 Y5.595 E11.92304
G1 X116.474 Y5.849 E11.9529
G1 X116.611 Y6.127 E11.98445
G1 X116.711 Y6.367 E12.01091
G1 X116.806 Y6.643 E12.04062
G1 X116.884 Y6.927 E12.07059
G1 X116.946 Y7.226 E12.10167
G1 X116.985 Y7.505 E12.13034
G1 X117.015 Y7.925 E12.1732
G1 X117.022 Y8.11 E12.19204
G1 X117.018 Y10.755 E12.46123
G1 X116.994 Y11.132 E12.49968
G1 X116.957 Y11.43 E12.53024
G1 X116.902 Y11.714 E12.55969
G1 X116.826 Y12.005 E12.5903
G1 X116.742 Y12.263 E12.61791
G1 X116.631 Y12.542 E12.64847
G1 X116.509 Y12.8 E12.67752
G1 X116.366 Y13.058 E12.70754
G1 X116.214 Y13.297 E12.73637
G1 X116.032 Y13.544 E12.76759
G1 X115.863 Y13.745 E12.79432
G1 X115.646 Y13.975 E12.8265
G1 X115.441 Y14.165 E12.85495
G1 X115.211 Y14.353 E12.88518
G1 X114.983 Y14.517 E12.91377
G1 X114.724 Y14.679 E12.94486
G1 X114.485 Y14.807 E12.97245
G1 X113.711 Y15.165 E13.05924
G1 X113.104 Y15.543 E13.13202
G1 X112.575 Y15.974 E13.20147
G1 X112.104 Y16.468 E13.27094
G1 X111.699 Y17.018 E13.34045
G1 X111.367 Y17.616 E13.41006
G1 X111.113 Y18.248 E13.47939
G1 X110.94 Y18.91 E13.54903
G1 X110.854 Y19.587 E13.61848
G1 X110.852 Y20.269 E13.68789
G1 X110.937 Y20.948 E13.75754
G1 X111.107 Y21.609 E13.827
G1 X111.359 Y22.243 E13.89644
G1 X111.689 Y22.842 E13.96604
G1 X112.092 Y23.392 E14.03544
G1 X112.561 Y23.889 E14.10499
G1 X113.089 Y24.322 E14.17448
G1 X113.666 Y24.685 E14.24386
G1 X114.236 Y24.951 E14.30788
G1 X114.642 Y25.113 E14.35237
G1 X114.922 Y25.246 E14.38392
G1 X115.166 Y25.381 E14.4123
G1 X115.405 Y25.533 E14.44113
G1 X115.652 Y25.715 E14.47235
G1 X115.853 Y25.884 E14.49908
G1 X116.086 Y26.104 E14.53169
G1 X116.273 Y26.306 E14.55971
G1 X116.461 Y26.536 E14.58994
G1 X116.625 Y26.764 E14.61853
G1 X116.784 Y27.019 E14.64911
G1 X116.915 Y27.262 E14.67721
G1 X117.042 Y27.537 E14.70804
G1 X117.144 Y27.798 E14.73656
G1 X117.239 Y28.101 E14.76888
G1 X117.293 Y28.322 E14.79203
G1 X117.353 Y28.678 E14.82877
G1 X117.403 Y29.232 E14.88539
G1 X117.413 Y29.454 E14.908
G1 X117.409 Y32.069 E15.17415
G1 X117.385 Y32.446 E15.2126
G1 X117.348 Y32.744 E15.24316
G1 X117.293 Y33.028 E15.2726
G1 X117.217 Y33.319 E15.30321
G1 X117.133 Y33.577 E15.33082
G1 X117.024 Y33.851 E15.36084
G1 X116.895 Y34.123 E15.39147
G1 X116.785 Y34.321 E15.41453
G1 X116.498 Y34.927 E15.48277
G1 X116.286 Y35.576 E15.55226
G1 X116.157 Y36.247 E15.6218
G1 X116.114 Y36.928 E15.69125
G1 X116.157 Y37.609 E15.7607
G1 X116.286 Y38.28 E15.83024
G1 X116.5 Y38.934 E15.90027
G1 X116.924 Y39.77 E15.99567
G1 X117.042 Y39.958 E16.01826
G1 X117.176 Y40.207 E16.04704
G1 X117.303 Y40.482 E16.07787
G1 X117.405 Y40.743 E16.10639
G1 X117.5 Y41.046 E16.13871
G1 X117.555 Y41.267 E16.16189
G1 X117.615 Y41.627 E16.19903
G1 X117.664 Y42.176 E16.25513
G1 X117.674 Y42.397 E16.27765
G1 X117.675 Y44.855 E16.52781
G1 X117.647 Y45.389 E16.58224
G1 X117.61 Y45.684 E16.61249
G1 X117.555 Y45.971 E16.64224
G1 X117.481 Y46.261 E16.6727
G1 X117.397 Y46.517 E16.70012
G1 X117.28 Y46.811 E16.73232
G1 X116.851 Y47.708 E16.83352
G1 X116.639 Y48.357 E16.90301
G1 X116.51 Y49.028 E16.97255
G1 X116.467 Y49.705 E17.04159
G1 X116.489 Y50.18 E17.08999
G1 X116.509 Y50.405 E17.11298
G1 X116.519 Y50.629 E17.1358
G1 X116.515 Y110.55 E23.23432
G1 X116.491 Y110.927 E23.27276
G1 X116.454 Y111.225 E23.30333
G1 X116.399 Y111.509 E23.33277
G1 X116.323 Y111.8 E23.36338
G1 X116.239 Y112.059 E23.39109
G1 X116.142 Y112.305 E23.418
G1 X116 Y112.605 E23.45178
G1 X115.863 Y112.853 E23.48062
G1 X115.714 Y113.085 E23.50868
G1 X115.526 Y113.342 E23.54109
G1 X115.36 Y113.54 E23.56739
G1 X115.144 Y113.769 E23.59942
G1 X114.938 Y113.96 E23.62802
G1 X114.709 Y114.148 E23.65817
G1 X114.481 Y114.311 E23.6867
G1 X114.22 Y114.474 E23.71801
G1 X113.982 Y114.602 E23.74552
G1 X113.707 Y114.729 E23.77635
G1 X113.446 Y114.831 E23.80487
G1 X113.143 Y114.926 E23.83718
G1 X112.922 Y114.98 E23.86034
G1 X112.566 Y115.04 E23.89708
G1 X112.012 Y115.09 E23.95369
G1 X111.79 Y115.1 E23.97631
G1 X51.869 Y115.096 E30.07483
G1 X51.492 Y115.072 E30.11328
G1 X51.194 Y115.035 E30.14384
G1 X50.91 Y114.98 E30.17328
G1 X50.619 Y114.904 E30.20389
G1 X50.359 Y114.819 E30.23173
G1 X50.082 Y114.709 E30.26207
G1 X49.823 Y114.586 E30.29125
G1 X49.566 Y114.444 E30.32113
G1 X49.327 Y114.292 E30.34996
G1 X49.089 Y114.117 E30.38003
G1 X48.857 Y113.922 E30.41087
G1 X48.244 Y113.344 E30.49662
G1 X47.679 Y112.925 E30.56821
G1 X47.083 Y112.592 E30.63769
G1 X46.45 Y112.337 E30.70715
G1 X45.789 Y112.165 E30.77666
G1 X45.112 Y112.076 E30.84616
G1 X44.429 Y112.074 E30.91567
G1 X43.752 Y112.158 E30.9851
G1 X43.089 Y112.327 E31.05474
G1 X42.454 Y112.578 E31.12423
G1 X41.852 Y112.909 E31.19415
G1 X41.096 Y113.493 E31.29138
G1 X40.909 Y113.666 E31.3173
G1 X40.675 Y113.858 E31.34811
G1 X40.445 Y114.023 E31.37692
G1 X40.186 Y114.185 E31.40801
G1 X39.947 Y114.313 E31.43561
G1 X39.672 Y114.44 E31.46643
G1 X39.411 Y114.542 E31.49495
G1 X39.108 Y114.637 E31.52727
G1 X38.863 Y114.697 E31.55294
G1 X38.563 Y114.751 E31.58397
G1 X38.107 Y114.801 E31.63066
G1 X37.966 Y114.811 E31.64504
G1 X35.21 Y114.911 E31.92572
G1 X34.93 Y114.912 E31.95422
G1 X32.669 Y114.858 E32.1844
G1 X32.162 Y114.817 E32.23617
G1 X29.944 Y114.536 E32.46371
G1 X29.188 Y114.392 E32.54204
G1 X27.478 Y113.954 E32.72169
G1 X27.104 Y113.845 E32.76134
G1 X25.884 Y113.431 E32.89246
G1 X24.597 Y112.932 E33.03295
G1 X23.21 Y112.33 E33.18684
G1 X21.905 Y111.717 E33.33358
G1 X19.698 Y110.735 E33.57943
G1 X19.108 Y110.503 E33.64395
G1 X18.484 Y110.285 E33.71122
G1 X17.76 Y110.062 E33.78833
G1 X16.973 Y109.856 E33.87112
G1 X16.67 Y109.786 E33.90277
G1 X16.073 Y109.667 E33.96473
G1 X15.767 Y109.615 E33.99632
G1 X14.945 Y109.496 E34.08085
G1 X14.035 Y109.31 E34.17538
G1 X14.034 Y109.315 E34.1759
G1 X13.974 Y109.303 E34.18213
G1 X13.252 Y109.253 E34.25579
G1 X9.612 Y109.249 E34.62625
G1 X9.235 Y109.225 E34.6647
G1 X8.937 Y109.188 E34.69526
G1 X8.653 Y109.133 E34.7247
G1 X8.362 Y109.057 E34.75531
G1 X8.102 Y108.972 E34.78315
G1 X7.825 Y108.862 E34.81349
G1 X7.566 Y108.739 E34.84267
G1 X7.309 Y108.597 E34.87255
G1 X7.07 Y108.445 E34.90138
G1 X6.823 Y108.263 E34.9326
G1 X6.622 Y108.094 E34.95933
G1 X6.389 Y107.874 E34.99194
G1 X6.202 Y107.672 E35.01996
G1 X6.01 Y107.437 E35.05085
G1 X5.85 Y107.214 E35.07878
G1 X5.688 Y106.955 E35.10987
G1 X5.56 Y106.716 E35.13746
G1 X5.433 Y106.441 E35.16829
G1 X5.331 Y106.18 E35.19681
G1 X5.236 Y105.877 E35.22913
G1 X5.182 Y105.656 E35.25229
G1 X5.122 Y105.3 E35.28903
G1 X5.072 Y104.746 E35.34564
G1 X5.062 Y104.524 E35.36826
G1 X5.066 Y99.239 E35.90615
G1 X5.09 Y98.862 E35.94459
G1 X5.127 Y98.564 E35.97515
G1 X5.182 Y98.28 E36.0046
G1 X5.258 Y97.989 E36.03521
G1 X5.342 Y97.731 E36.06282
G1 X5.453 Y97.452 E36.09338
G1 X5.575 Y97.194 E36.12243
G1 X5.721 Y96.931 E36.15304
G1 X5.87 Y96.697 E36.18128
G1 X6.052 Y96.45 E36.2125
G1 X6.221 Y96.249 E36.23923
G1 X6.441 Y96.016 E36.27184
G1 X6.643 Y95.829 E36.29986
G1 X6.873 Y95.641 E36.33009
G1 X7.102 Y95.477 E36.35876
G1 X7.937 Y94.959 E36.45877
G1 X8.466 Y94.53 E36.52809
G1 X8.938 Y94.036 E36.59762
G1 X9.343 Y93.486 E36.66714
G1 X9.677 Y92.89 E36.73667
G1 X9.932 Y92.257 E36.80613
G1 X10.104 Y91.596 E36.87564
G1 X10.193 Y90.92 E36.94504
G1 X10.195 Y90.236 E37.01465
G1 X10.111 Y89.559 E37.08408
G1 X9.942 Y88.898 E37.15352
G1 X9.692 Y88.262 E37.22307
G1 X9.362 Y87.664 E37.29259
G1 X8.958 Y87.108 E37.36253
G1 X8.299 Y86.443 E37.45782
G1 X7.934 Y86.135 E37.50643
G1 X7.745 Y85.954 E37.53306
G1 X7.548 Y85.74 E37.56266
G1 X7.352 Y85.498 E37.59436
G1 X7.184 Y85.262 E37.62384
G1 X7.049 Y85.044 E37.64994
G1 X6.893 Y84.753 E37.68354
G1 X6.786 Y84.517 E37.70991
G1 X6.676 Y84.23 E37.7412
G1 X6.592 Y83.96 E37.76998
G1 X6.528 Y83.697 E37.79752
G1 X6.472 Y83.358 E37.83249
G1 X6.424 Y82.81 E37.88848
G1 X6.416 Y82.614 E37.90844
G1 X6.42 Y80.011 E38.17337
G1 X6.444 Y79.634 E38.21182
G1 X6.481 Y79.336 E38.24238
G1 X6.536 Y79.052 E38.27182
G1 X6.612 Y78.761 E38.30243
G1 X6.696 Y78.503 E38.33004
G1 X6.807 Y78.224 E38.3606
G1 X6.929 Y77.966 E38.38965
G1 X7.075 Y77.703 E38.42027
G1 X7.224 Y77.469 E38.4485
G1 X7.406 Y77.222 E38.47972
G1 X7.575 Y77.021 E38.50645
G1 X7.795 Y76.788 E38.53907
G1 X7.997 Y76.601 E38.56708
G1 X8.227 Y76.413 E38.59732
G1 X8.455 Y76.249 E38.6259
G1 X8.714 Y76.087 E38.65699
G1 X8.953 Y75.959 E38.68458
G1 X9.228 Y75.832 E38.71541
G1 X9.489 Y75.73 E38.74393
G1 X9.792 Y75.635 E38.77625
G1 X10.02 Y75.579 E38.80015
G1 X10.276 Y75.536 E38.82657
G1 X10.929 Y75.384 E38.8948
G1 X11.568 Y75.146 E38.9642
G1 X12.173 Y74.83 E39.03367
G1 X12.734 Y74.439 E39.10327
G1 X13.24 Y73.981 E39.17273
G1 X13.684 Y73.462 E39.24224
G1 X14.06 Y72.892 E39.31174
G1 X14.36 Y72.278 E39.38129
G1 X14.581 Y71.632 E39.45078
G1 X14.718 Y70.966 E39.51998
G1 X14.767 Y70.39 E39.57881
G1 X14.793 Y69.917 E39.62703
G1 X14.914 Y68.961 E39.7251
G1 X14.916 Y68.279 E39.79451
G1 X14.831 Y67.601 E39.86406
G1 X14.662 Y66.94 E39.93349
G1 X14.411 Y66.305 E40.00299
G1 X14.081 Y65.707 E40.0725
G1 X13.678 Y65.156 E40.14198
G1 X13.209 Y64.659 E40.21153
G1 X12.681 Y64.226 E40.28103
G1 X12.103 Y63.863 E40.35049
G1 X11.484 Y63.576 E40.41993
G1 X10.833 Y63.368 E40.48949
G1 X10.163 Y63.245 E40.55882
G1 X9.537 Y63.208 E40.62264
G1 X7.692 Y63.204 E40.81042
G1 X7.315 Y63.18 E40.84887
G1 X7.017 Y63.143 E40.87943
G1 X6.733 Y63.088 E40.90887
G1 X6.442 Y63.012 E40.93948
G1 X6.182 Y62.927 E40.96732
G1 X5.905 Y62.817 E40.99765
G1 X5.646 Y62.694 E41.02683
G1 X5.389 Y62.552 E41.05672
G1 X5.15 Y62.4 E41.08554
G1 X4.903 Y62.218 E41.11677
G1 X4.702 Y62.049 E41.1435
G1 X4.469 Y61.829 E41.17611
G1 X4.282 Y61.627 E41.20413
G1 X4.09 Y61.392 E41.23501
G1 X3.93 Y61.169 E41.26295
G1 X3.768 Y60.91 E41.29404
G1 X3.64 Y60.671 E41.32163
G1 X3.513 Y60.396 E41.35246
G1 X3.411 Y60.135 E41.38098
G1 X3.316 Y59.832 E41.4133
G1 X3.262 Y59.611 E41.43645
G1 X3.202 Y59.255 E41.4732
G1 X3.152 Y58.701 E41.52981
G1 X3.142 Y58.479 E41.55243
G1 X3.146 Y53.193 E42.09041
G1 X3.17 Y52.816 E42.12886
G1 X3.207 Y52.518 E42.15942
G1 X3.262 Y52.234 E42.18887
G1 X3.338 Y51.943 E42.21948
G1 X3.422 Y51.685 E42.24709
G1 X3.533 Y51.406 E42.27765
G1 X3.655 Y51.148 E42.3067
G1 X3.801 Y50.885 E42.33731
G1 X3.943 Y50.662 E42.36422
G1 X4.143 Y50.391 E42.3985
G1 X4.301 Y50.203 E42.42349
G1 X4.521 Y49.97 E42.45611
G1 X4.723 Y49.783 E42.48412
G1 X4.958 Y49.591 E42.51501
G1 X5.19 Y49.425 E42.54404
G1 X5.708 Y49 E42.61223
G1 X6.177 Y48.504 E42.68171
G1 X6.58 Y47.953 E42.75119
G1 X6.91 Y47.356 E42.82061
G1 X7.163 Y46.721 E42.89018
G1 X7.333 Y46.06 E42.95964
G1 X7.418 Y45.382 E43.02919
G1 X7.418 Y44.699 E43.0987
G1 X7.33 Y44.022 E43.16818
G1 X7.159 Y43.361 E43.23767
G1 X6.905 Y42.728 E43.30709
G1 X6.573 Y42.131 E43.37661
G1 X6.169 Y41.581 E43.44607
G1 X5.695 Y41.081 E43.51619
G1 X5.511 Y40.939 E43.53984
G1 X5.525 Y40.92 E43.54224
G1 X4.843 Y40.418 E43.62843
G1 X4.594 Y40.208 E43.66158
G1 X4.401 Y40.023 E43.68879
G1 X4.207 Y39.813 E43.71789
G1 X4.014 Y39.575 E43.74908
G1 X3.837 Y39.326 E43.78017
G1 X3.702 Y39.107 E43.80635
G1 X3.559 Y38.84 E43.83718
G1 X3.434 Y38.566 E43.86783
